!!!OTL: Als Gott die Welt erschaffen hat (Band 1), S. 232
!!!id: P0858
**kern
*clefG2
*k[f#c#]
*D:
{8d
=1
8d
8e
8f#
8g
=2
8a
8a
8a}
=3
{8a
=4
8b
8cc#
8dd
8b
=5
8b
8a}
8r
=6
{8a
=7
8a
8g
8g
8e
=8
8d
8f#
8f#}
=9
{8f#
=10
8e
8f#
8g
8e
=11
4d}
8r
==
*-
!!!minrhy: 8
!!!meters: 2/4 ]  ZZ[4
!!!cut: Als Gott die Welt erschaffen hat (Band 1), S. 232
!!!reg: Lothringen
!!!trd: PINCK, Louis: Verklingende Weisen, Bd 1, Metz 1928
!!!rhy1: X  XXXX  XXX
!!!rhy2: X  XXXX  XX0
!!!key: P0858  08  D 2/4 ]  ZZ[4
!!!mod: HEPTATONIK IONISCH]  AMBITUS[8
!!!kad: 5531
!!!akz: 15_66_51_21_
!!!fot: 'a__b__c__d__
!!!for: 'a__a__a__aw_
!!!fok: '/__^__Vd_\__
!! PHRAS[AUFTAKTIG]
!!!fkt: ???, Ehestzandslied?, reliogiös?
!! LOTH VKL
!! PR[13] 2K[2] 2G[16] 3K[11] 3G[11] 4A[2] 4Ü[0] 5A[0] 6K[0] 6G[0]
!! 7K[0] 7G[0] 8A[0] MEHR[0] SI[42] ABS[45] SR[18] SP[24]
!! ST[12] 2k[7] 2g[20] 3k[2] 3g[11] 4d[0] 4ü[0] 5d[2] 6k[2] 6g[0]
!! 7k[0] 7g[0] 8d[0] mehr[0] si[44] dm[-2] sr[27] sp[18]
!! 1F[15] 2F[75] 3F[4] 4F[0] LF[0] 2P[6] 3P[0] 4P[0] TRI[0] DF[4] AB[48]
!! TF[0] U3K[0] U3[0] U4[0] U4Ü[0] U5[2] U6K[0] U6[0] U7K[0] U7[2]
!! N1[20] N2K[0] N2[11] N3K[0] N3[22] N4[13] N4Ü[0] N5[26] N6K[0] N6[4]
!!!n7k: 0] N7[0] O1[0] O2K[0] O2[0] O3K[0] O3[0] HÖ[0
